X: 21171
T: Seaforth's Farewell
%R: air, strathspey
B: James Oswald "The Caledonian Pocket Companion" v.2 p.117 #1
Z: 2018 John Chambers <jc:trillian.mit.edu>
M: C
L: 1/16
K: G
%%slurgraces yes
%%graceslurs yes
|: "_Slow"\
g6e2 (dB3)(dA3) | B4g3a {ga}b6(ag) |\
f4g3f Te6d2 | d8 Hz8 |\
g4 Tf4 e4 f3g | a3bg3a Tf4Te3d |
B4e4 d3eg3a | {ga}b4 Ta3g g6e2 |\
(dB3) G3A A6 G2 | G4 B3d {ga}b6 a2 |\
g3e (de)g2 (dB3) A3B | G8 Hz8 :|
|:\
b6g2 (fd3)(ge3) | (g4f2)g2 e4Td3B |\
(B4A2)d2 B4e3f | g4Tf3e e4Hz4 |\
a4g4 (fd3)g4 | e4a4 (fd3)b4 |
c'6b2 a3bg3a | b4Ta3g g6e2 |\
(dB3) G3A B4TA3G | G4B3d {ga}b6a2 |\
g3e (de)g2 (dB3) A3B | G8 Hz8 :|


